icons/Medal.svg

<svg width="24" height="24" viewBox="0 0 24 24" fill="none" xmlns="http://www.w3.org/2000/svg">
<path fill-rule="evenodd" clip-rule="evenodd" d="M5.1603,2.53669c0.14219,-0.18096 0.35959,-0.28663 0.58974,-0.28663h12.49996c0.2302,0 0.4476,0.10567 0.5898,0.28663l1.9266,2.45208c0.6856,0.87261 0.7796,2.07179 0.2382,3.04052l-3.9459,7.06121c0.1247,0.4486 0.1913,0.9213 0.1913,1.4096c0,2.8995 -2.3505,5.25 -5.25,5.25c-2.89946,0 -5.24996,-2.3505 -5.24996,-5.25c0,-0.4883 0.06666,-0.961 0.19138,-1.4096l-3.94597,-7.06121c-0.54135,-0.96873 -0.4474,-2.16791 0.23822,-3.04052zM19.5869,5.91551l-1.2293,-1.56465l-4.1123,7.40214c0.8075,0.3827 1.5019,0.9653 2.019,1.684l3.4309,-6.13944c0.2461,-0.44033 0.2034,-0.98541 -0.1083,-1.38205zM9.52467,8.25006l1.69843,3.05714c0.2535,-0.0377 0.5129,-0.0571 0.7769,-0.0571c0.264,0 0.5235,0.0194 0.777,0.0571l1.6984,-3.05714zM15.3087,6.75006l1.6667,-3h-9.95072l1.66666,3zM4.41314,5.91551c-0.31164,0.39664 -0.35435,0.94172 -0.10828,1.38205l3.43087,6.13944c0.51715,-0.7187 1.21151,-1.3013 2.01909,-1.684l-4.11231,-7.40214zM12,12.7501c-2.07103,0 -3.74996,1.6789 -3.74996,3.75c0,2.071 1.67893,3.75 3.74996,3.75c2.0711,0 3.75,-1.679 3.75,-3.75c0,-2.0711 -1.6789,-3.75 -3.75,-3.75z" fill="#002B51"/>
</svg>

<svg width="24" height="24" viewBox="0 0 24 24" fill="none" xmlns="http://www.w3.org/2000/svg">
<path fill-rule="evenodd" clip-rule="evenodd" d="M5.1603 2.53669C5.30249 2.35573 5.51989 2.25006 5.75004 2.25006H18.25C18.4802 2.25006 18.6976 2.35573 18.8398 2.53669L20.7664 4.98877C21.452 5.86138 21.546 7.06056 21.0046 8.02929L17.0587 15.0905C17.1834 15.5391 17.25 16.0118 17.25 16.5001C17.25 19.3996 14.8995 21.7501 12 21.7501C9.10054 21.7501 6.75004 19.3996 6.75004 16.5001C6.75004 16.0118 6.8167 15.5391 6.94142 15.0905L2.99545 8.02929C2.4541 7.06056 2.54805 5.86138 3.23367 4.98877L5.1603 2.53669ZM19.6952 7.29756L16.2643 13.437C15.7472 12.7183 15.0528 12.1357 14.2453 11.753L18.3576 4.35086L19.5869 5.91551C19.8986 6.31215 19.9413 6.85723 19.6952 7.29756ZM14.4754 8.25006L12.777 11.3072C12.5235 11.2695 12.264 11.2501 12 11.2501C11.736 11.2501 11.4766 11.2695 11.2231 11.3072L9.52467 8.25006H14.4754ZM15.3087 6.75006L16.9754 3.75006H7.02468L8.69134 6.75006H15.3087ZM5.64251 4.35086L9.75482 11.753C8.94724 12.1357 8.25288 12.7183 7.73573 13.437L4.30486 7.29756C4.05879 6.85723 4.1015 6.31215 4.41314 5.91551L5.64251 4.35086ZM12 12.7501C9.92897 12.7501 8.25004 14.429 8.25004 16.5001C8.25004 18.5711 9.92897 20.2501 12 20.2501C14.0711 20.2501 15.75 18.5711 15.75 16.5001C15.75 14.429 14.0711 12.7501 12 12.7501Z" fill="#002B51"/>
</svg>
